icons/House_1.svg

<svg width="24" height="24" viewBox="0 0 24 24" fill="none" xmlns="http://www.w3.org/2000/svg">
<path fill-rule="evenodd" clip-rule="evenodd" d="M12.1767,4.23729c-0.0977,-0.09764 -0.256,-0.09764 -0.3536,0l-7,7.00001c-0.04688,0.0469 -0.07322,0.1105 -0.07322,0.1768l0.0001,8.5858c0,0.138 0.11193,0.2499 0.25,0.2499h3.49994c0.13807,0 0.25,-0.1119 0.25,-0.25l-0.00009,-4.9999c-0.00002,-0.9665 0.78349,-1.7501 1.74997,-1.7501h3c0.9665,0 1.75,0.7835 1.75,1.75l0.0001,5.0001c0,0.138 0.1119,0.2499 0.25,0.2499h3.5c0.138,0 0.25,-0.1119 0.25,-0.25v-8.5857c0,-0.0663 -0.0264,-0.1299 -0.0732,-0.1768zM10.7624,3.17663c0.6835,-0.68342 1.7915,-0.68342 2.4749,0l7,6.99997c0.3282,0.3282 0.5126,0.7733 0.5126,1.2375v8.5857c0,0.9665 -0.7835,1.75 -1.75,1.75h-3.5c-0.9665,0 -1.75,-0.7834 -1.75,-1.7499l-0.0001,-5.0001c0,-0.138 -0.1119,-0.25 -0.25,-0.25h-3c-0.138,0 -0.25,0.112 -0.25,0.2501l0.0001,4.9999c0,0.9665 -0.78347,1.75 -1.74998,1.75h-3.49994c-0.96649,0 -1.74999,-0.7834 -1.75,-1.7499l-0.0001,-8.5858c-0.00001,-0.4642 0.18437,-0.9093 0.51256,-1.2375z" fill="#002B51"/>
</svg>

<svg width="24" height="24" viewBox="0 0 24 24" fill="none" xmlns="http://www.w3.org/2000/svg">
<path fill-rule="evenodd" clip-rule="evenodd" d="M12.1767 4.23729C12.079 4.13965 11.9207 4.13965 11.8231 4.23729L4.8231 11.2373C4.77622 11.2842 4.74988 11.3478 4.74988 11.4141L4.74998 19.9999C4.74998 20.1379 4.86191 20.2498 4.99998 20.2498H8.49992C8.63799 20.2498 8.74992 20.1379 8.74992 19.9998L8.74983 14.9999C8.74981 14.0334 9.53332 13.2498 10.4998 13.2498H13.4998C14.4663 13.2498 15.2498 14.0333 15.2498 14.9998L15.2499 19.9999C15.2499 20.1379 15.3618 20.2498 15.4999 20.2498H18.9999C19.1379 20.2498 19.2499 20.1379 19.2499 19.9998V11.4141C19.2499 11.3478 19.2235 11.2842 19.1767 11.2373L12.1767 4.23729ZM10.7624 3.17663C11.4459 2.49321 12.5539 2.49321 13.2373 3.17663L20.2373 10.1766C20.5655 10.5048 20.7499 10.9499 20.7499 11.4141V19.9998C20.7499 20.9663 19.9664 21.7498 18.9999 21.7498H15.4999C14.5334 21.7498 13.7499 20.9664 13.7499 19.9999L13.7498 14.9998C13.7498 14.8618 13.6379 14.7498 13.4998 14.7498H10.4998C10.3618 14.7498 10.2498 14.8618 10.2498 14.9999L10.2499 19.9998C10.2499 20.9663 9.46643 21.7498 8.49992 21.7498H4.99998C4.03349 21.7498 3.24999 20.9664 3.24998 19.9999L3.24988 11.4141C3.24987 10.9499 3.43425 10.5048 3.76244 10.1766L10.7624 3.17663Z" fill="#002B51"/>
</svg>
